icons/zeit.svg

<?xml version="1.0" encoding="UTF-8"?>
<svg width="512px" height="101px" viewBox="0 0 512 101" version="1.1" xmlns="http://www.w3.org/2000/svg" xmlns:xlink="http://www.w3.org/1999/xlink" preserveAspectRatio="xMidYMid">
    <defs>
        <linearGradient x1="100.929941%" y1="181.283245%" x2="41.7687834%" y2="100%" id="linearGradient-1">
            <stop stop-color="#FFFFFF" offset="0%"></stop>
            <stop stop-color="#000000" offset="100%"></stop>
        </linearGradient>
    </defs>
	<g>
		<polygon fill="url(#linearGradient-1)" points="56.8576128 0 113.715226 100.874954 0 100.874954"></polygon>
		<path d="M191.260512,75.8350719 L236.873078,75.8350719 L236.873078,67.9169982 L202.635773,67.9169982 L236.315467,19.8509453 L236.315467,12.9365711 L191.818123,12.9365711 L191.818123,20.8546448 L224.940206,20.8546448 L191.260512,68.9206977 L191.260512,75.8350719 Z M284.604564,75.8350719 L325.533198,75.8350719 L325.533198,67.9169982 L293.860904,67.9169982 L293.860904,47.7314864 L321.406878,47.7314864 L321.406878,39.8134127 L293.860904,39.8134127 L293.860904,20.8546448 L325.533198,20.8546448 L325.533198,12.9365711 L284.604564,12.9365711 L284.604564,75.8350719 Z M374.825995,75.8350719 L414.75093,75.8350719 L414.75093,67.9169982 L399.472393,67.9169982 L399.472393,20.8546448 L414.75093,20.8546448 L414.75093,12.9365711 L374.825995,12.9365711 L374.825995,20.8546448 L390.216054,20.8546448 L390.216054,67.9169982 L374.825995,67.9169982 L374.825995,75.8350719 Z M480.437485,75.8350719 L489.693825,75.8350719 L489.693825,20.8546448 L511.10608,20.8546448 L511.10608,12.9365711 L459.248274,12.9365711 L459.248274,20.8546448 L480.437485,20.8546448 L480.437485,75.8350719 Z" fill="#333333"></path>
	</g>
</svg>

<svg xmlns="http://www.w3.org/2000/svg" viewBox="0 0 511.106 100.875">
  <defs>
    <linearGradient id="a" x1="108.099" x2="44.736" y1="194.16" y2="107.103" gradientTransform="scale(1.06174 .94185)" gradientUnits="userSpaceOnUse">
      <stop offset="0%" stop-color="#FFF"/>
      <stop offset="100%"/>
    </linearGradient>
  </defs>
  <path fill="url(#a)" d="M0 100.875 56.858 0l56.857 100.875z" style="fill:url(#a)"/>
  <path fill="#333" d="M191.26 75.835h45.613v-7.918h-34.237l33.68-48.066v-6.914h-44.498v7.918h33.122L191.26 68.92zm93.345 0h40.928v-7.918h-31.672V47.731h27.546v-7.918H293.86V20.855h31.672v-7.918h-40.928zm90.221 0h39.925v-7.918h-15.279V20.855h15.279v-7.918h-39.925v7.918h15.39v47.062h-15.39zm105.611 0h9.257v-54.98h21.412v-7.918h-51.858v7.918h21.19z"/>
</svg>
